X:1
T:Come Back To Sorrento
T:Come Back To Sorrento
T:Torna A Surriento
T:Ernesto De Curtis
C:E. De Curtis
%%score { ( 1 4 ) | ( 2 3 ) }
L:1/8
Q:1/4=90
M:3/4
K:F
V:1 treble nm="Piano" snm="Pno."
V:4 treble 
V:2 bass 
V:3 bass 
V:1
!p!"^Andante" (DE FG"^Fisarmonica" AF | [DFA]2 [DFA]4) | (GA BG BG | [FAd]2 [FAd]4) | %4
"^Arr. A.I.Johnsen" (de fe de | [DFA]2 [DFA]4) | (GA GF EF | [F,A,D]6) ||!mf! (de fg af | %9
 [dfa]2 [dfa]4) | (ga bg bg | [fad']2 [fad']4) | (d'e' f'e' d'e' | [dfa]2 [dfa]4) | (ga gf ef | %15
 [^FAd]6) ||[K:D]!f! ([fd'][fc'] [fa][fb] [fc'][fa] | [gb]2) [gb]4 | %18
 ([gc'][gb] [ga][gb] [gc'][ga] | [fb]2) [fb]4 |!p! (FG AF ED | G2) G4 | (AB cB Ac | F6) | %24
!mf! ([fd'][fc'] [fa][fb] [fc'][fa] | [gb]2) [gb]4 |!f! ([ae'][ad'] [ac'][ad'] [ae'][ac'] | %27
 [bd']2) [bd']4 | %28
[Q:1/4=90] ([ad'][Q:1/4=89]"^.2"[ae'][Q:1/4=88]"^.3" [a=f'][Q:1/4=87]"^.5"[ae'][Q:1/4=86]"^.7" [ad'][Q:1/4=85]"^.8"[ae'] | %29
[Q:1/4=85] [d=fa]2[Q:1/4=83]"^.3" [dfa]4[Q:1/4=84]"^.2"[Q:1/4=82]"^.5"[Q:1/4=81]"^.7"[Q:1/4=80]"^.8" | %30
[Q:1/4=80]!>(! [eg][Q:1/4=79]"^.2"[=fa][Q:1/4=78]"^.3" [eg][Q:1/4=77]"^.5"[df]!>)![Q:1/4=76]"^.7" e[Q:1/4=75]"^.8"f | %31
[Q:1/4=75][Q:1/4=90]!p! [FAd]6) ||!mf! ([fad'][fae'] [fac']3 [fab] | [gbd']6) | %34
 z [cgc'] [dgd'][ege'] [cgc'][Bgb] | [Afa]2 [Afa]4 | [_Bdg]2 [dg_b]2 [gbd']2 | %37
[Q:1/4=90] ([ad'=f']3[Q:1/4=88]"^.8" [ge'][Q:1/4=88]"^.3" [=fad']2)[Q:1/4=89]"^.2" | %38
[Q:1/4=87]"^.5" ([gd'][Q:1/4=87]"^.1"[ge'][Q:1/4=86]"^.7" !fermata![gac']3)[Q:1/4=85]"^.4" ([gac'] || %39
[K:F][Q:1/4=85]!>(! [fad']6[Q:1/4=84]"^.6"[Q:1/4=84]"^.2"[Q:1/4=83]"^.8"[Q:1/4=83]"^.3"[Q:1/4=82]"^.9" | %40
[Q:1/4=82]"^.5" [gbd']6[Q:1/4=82]"^.1"[Q:1/4=81]"^.7"[Q:1/4=81]"^.3"[Q:1/4=80]"^.8"[Q:1/4=80]"^.4" | %41
[Q:1/4=80] [g^c'e']4[Q:1/4=78]"^.3" [egc']2!>)![Q:1/4=79]"^.6"[Q:1/4=79]"^.2"[Q:1/4=78]"^.8"[Q:1/4=77]"^.9" | %42
[Q:1/4=77]"^.5"!p! !fermata![^fad']6)!D.C.! |] %43
V:2
"Dm" [D,,D,]6 |"D""Bother" (D,,"E"E,,"F" F,,"G"G,,"A" A,,"G"F,, |"Gm" G,,6) | %3
"Dm" (D,E, F,G, A,F,) |"Gm" G,,6 |"Dm" (D,,E,, F,,G,, A,,F,, |"E""Eb" E,,6) |"D" D,,6 || D,,6 | %9
 (D,,E,, F,,G,, A,,F,, |"Gm" G,,6) |"Dm" (D,E, F,G, A,F, |"Bb" G,,6) |"Dm" (D,,E,, F,,G,, A,,F,, | %14
"E""Gm" E,,6) |"D" D,,6 ||[K:D] D,,2"D" D2 D2 |"Em" E,,2 E,2 E,2 |"A7" A,,2 A,2 A,2 | %19
"D" D,,2 D2 D2 | D,,2 D2"Bm" F,,2 |"Em" E,,2 E,2 E,2 |"A7" A,,2 A,2 A,,2 |"D" D,,2 D,2 A,,2 | %24
 D,,2 D2"Bm" B,,2 |"Em" E,,2 E,2 E,2 |"A7" A,,4 ^A,,2 |"Bm" B,,4 A,,2 | %28
"Gm""^poco ritardondo" [^G,,D]6 |"A""Bother""Dm" A,,"Bb"_B,,"A" A,,"G"G,,"F" =F,,"F#"^F,, | %30
"Gm" G,,4"A7" A,,2 |"D""^a tempo" D,,6 ||"D" F,,6 |"Em" E,,6 |"A7" A,,6 |"D" D,,6 | G,,6 | %37
"Dm""^ritardondo" A,,6 |"A7" !>!A,,6 ||[K:F]"Bother""D" (D,,E,, F,,G,, A,,F,, | %40
"Gm" G,,A,, B,,C, D,B,, |"Edim" G,F, E,F,"A" G,A,, |"D" !fermata![D,,D]6) |] %43
V:3
 z2 D2 D2 | x6 | z2 G,2 G,2 | x6 | z2 G,2"Bb" G,2 | x6 | z2 A,2"A7" A,2 | x6 || z2"Dm" D2 D2 | x6 | %10
 z2 G,2 G,2 | x6 | z2 G,2"Gm" G,2 | x6 | z2 A,2"A7" A,2 | x6 ||[K:D] x6 | x6 | x6 | x6 | x6 | x6 | %22
 x6 | x6 | x6 | x6 | z2 A,2 z2 | z2 B,4 | x6 | x6 | z2 G,2 A,2 | x6 || z2 D2 D2 | z2 E,2 E,2 | %34
 z2 A,2 A,2 | z2 D2 D2 | z2"Gm" G,2 G,2 | z2 D2 D2 | z2 !fermata!A,4 ||[K:F] x6 | x6 | x6 | x6 |] %43
V:4
 x6 | x6 | x6 | x6 | [GB]6 | x6 | ^C6 | x6 || x6 | x6 | x6 | x6 | [gb]6 | x6 | ^c6 | x6 || %16
[K:D] x6 | x6 | x6 | x6 | x6 | x6 | x6 | x6 | x6 | x6 | x6 | x6 | x6 | x6 | _B4 [Gc]2 | x6 || x6 | %33
 x6 | x6 | x6 | x6 | x6 | x6 ||[K:F] x6 | x6 | x6 | x6 |] %43

